common/imgs/hdr-clio-logo.svg

<?xml version="1.0" encoding="UTF-8"?><svg id="_レイヤー_2" xmlns="http://www.w3.org/2000/svg" viewBox="0 0 107.36 27.99"><defs><style>.cls-1{fill:#004ea2;}.cls-2{fill:#009d8e;}</style></defs><g id="_レイヤー_1-2"><path class="cls-1" d="M89.86,0c-10.64,0-17.59,6.12-17.59,14.06s7,13.93,17.59,13.93,17.5-6.1,17.5-13.93S100.5,0,89.86,0M89.88,25.65c-6.23,0-10.16-5.29-10.16-11.59s3.6-11.72,10.16-11.72,10.04,5.43,10.04,11.72-3.81,11.59-10.04,11.59"/><path class="cls-1" d="M18.84,25.58c-7.16,0-11.07-4.96-11.07-11.79S12.29,2.4,18.96,2.4c5.07,0,9.46,3.78,12.06,6.59l-.84-6.34C27.56,1.14,23,0,18.06,0,7.63,0,0,5.91,0,13.95s7.43,14.04,17.8,14.04c5.33,0,9.72-1.12,12.39-2.55l.84-6.43c-2.83,2.99-6.93,6.57-12.19,6.57"/><polygon class="cls-2" points="69.21 .74 61.61 .74 61.61 8.14 69.21 3.06 69.21 .74"/><polygon class="cls-1" points="69.21 27.36 69.21 5.79 61.61 10.86 61.61 27.36 69.21 27.36"/><path class="cls-1" d="M55.85,27.36l3.78-2.53h-17.28V.74h-9.43c1.23,1.61,1.84,3.26,1.84,5.39v21.23h21.1Z"/></g></svg>

<svg xmlns="http://www.w3.org/2000/svg" viewBox="0 0 107.36 27.99"><defs><style>.cls-1{fill:#004da0;}.cls-2{fill:#009c8d;}</style></defs><g id="レイヤー_2" data-name="レイヤー 2"><g id="レイヤー_1-2" data-name="レイヤー 1"><path class="cls-1" d="M89.86,0C79.22,0,72.28,6.12,72.28,14.06S79.28,28,89.86,28s17.5-6.09,17.5-13.93S100.5,0,89.86,0m0,25.65c-6.22,0-10.16-5.29-10.16-11.59S83.32,2.34,89.88,2.34s10,5.43,10,11.72-3.81,11.59-10,11.59"/><path class="cls-1" d="M18.84,25.58c-7.16,0-11.07-4.95-11.07-11.79S12.29,2.4,19,2.4C24,2.4,28.43,6.17,31,9l-.84-6.34C27.56,1.14,23,0,18.06,0,7.63,0,0,5.91,0,14S7.43,28,17.8,28a27.36,27.36,0,0,0,12.39-2.55L31,19c-2.83,3-6.93,6.57-12.19,6.57"/><polygon class="cls-2" points="69.21 0.74 61.61 0.74 61.61 8.14 69.21 3.06 69.21 0.74"/><polygon class="cls-1" points="69.21 27.36 69.21 5.79 61.61 10.86 61.61 27.36 69.21 27.36"/><path class="cls-1" d="M55.85,27.36l3.78-2.52H42.35V.74H32.91a8.31,8.31,0,0,1,1.84,5.39V27.36Z"/></g></g></svg>
